icon/cg/pexels.svg

<svg viewBox="0 0 24 24" fill="none" xmlns="http://www.w3.org/2000/svg" height="1em" width="1em">
  <path fill-rule="evenodd" clip-rule="evenodd" d="M12 5C12.7111 5 13.3875 5.14845 14 5.41604C15.7659 6.1876 17 7.94968 17 10C17 12.0503 15.7659 13.8124 14 14.584C13.3875 14.8516 12.7111 15 12 15V19H6V5H12ZM8 7V17H10V13H12L12.0032 12.9988C13.6427 13.0303 15.0746 11.6934 15.0443 9.95469L15.0375 9.56529C15.0121 8.10183 13.7882 6.94549 12.3257 7.00299L12.0203 7.00762L12 7H8Z" fill="currentColor"/>
</svg>

<svg width="24" height="24" fill="none" xmlns="http://www.w3.org/2000/svg"><path fill-rule="evenodd" clip-rule="evenodd" d="M12 5a5.001 5.001 0 0 1 0 10v4H6V5h6ZM8 7v10h2v-4h2l.003-.001a2.993 2.993 0 0 0 3.041-3.044l-.007-.39a2.61 2.61 0 0 0-2.711-2.562l-.306.005L12 7H8Z" fill="currentColor"/></svg>
